X:176
T:Steirer
C:traditionell
R:Steirer
A:Bad Aussee, Salzkammergut
B:"Pfeifermusik aus Bad Ischl", Lois Blamberger, 3. Auflage, Bad Ischl 1990
S:im buch mit der Angabe: aus der Sammlung vom Blamberger Lois
N:im buch in G, nr. 8/4
Z:abc transcription Simon Wascher
M:3/4
L:1/8
K:G
V:1
g2 |\
(fAdf) A2 | (gBdg) B2 | (fAdf) A2 | (GBdg) (bg) |\
(fAdf) A2 | (gBdg) B2 | (fAdf) (Af) | g2 z2 :|
V:2
b2 |\
(adfa) d2 | (bdgb) d2 | (adfa) d2 | (Bdgb) (d'c') |\
(adfa) d2 | (bdgb) d2 | (adfa) (dd') | b2 z2 :|
